src/icons/underline.svg

<svg width="24" height="24" viewBox="0 0 24 24" fill="none" xmlns="http://www.w3.org/2000/svg">
<path d="M8 2H5V4H6V12C6 15.3137 8.68629 18 12 18C15.3137 18 18 15.3137 18 12V4H19V2H16V12C16 14.2091 14.2091 16 12 16C9.79086 16 8 14.2091 8 12V2Z" fill="black"/>
<path d="M19 22V20H5V22H19Z" fill="black"/>
</svg>

<svg xmlns="http://www.w3.org/2000/svg" width="24" height="24" fill="none"><path fill="currentColor" d="M8 2H5v2h1v8a6 6 0 0 0 12 0V4h1V2h-3v10a4 4 0 0 1-8 0zm11 20v-2H5v2z"/></svg>
